X: 12
T: Jimmy Allen
T: Jamie Allen
B: NEFR #63
N: AKA "Reel of Tullochgoram"
M: C|
L: 1/4
Z: John Chambers <jc:trillian.mit.edu>
N: Jamie Allen was a Northumbrian small-pipes player.
K: G
 G/A/ \
| "G"BG GA | "Em"B2 GA/B/ | "Am"cA AB | "D7"c2 BA \
| "G"Gg "C"ge | "G"d2 B>c | "D7"dd c/B/A | "G"G2 G :|
|: B/A/ \
| "G"Gg g>f | "Em"ed cB | "Am"Aa a>g | "D7"fd ef \
| "C"g>a ge | "G"d2 B>c | "D7"dd c/B/A | "G"G2 G :|

%%sep 2 1 500

